the-plus-addons-for-block-editor/assets/images/preloader/progress-3.svg

<svg xmlns="http://www.w3.org/2000/svg" width="1000" height="700" fill="none" viewBox="0 0 1000 700"><path fill="#FCFCFF" d="M0 0h1000v700H0z"/><path fill="#888" d="M482.55 340.915h-11.725v6.965c.49-.653 1.213-1.202 2.17-1.645a7.475 7.475 0 0 1 3.115-.665c1.96 0 3.547.42 4.76 1.26 1.237.84 2.112 1.902 2.625 3.185.537 1.283.805 2.637.805 4.06 0 1.727-.338 3.267-1.015 4.62-.653 1.33-1.645 2.38-2.975 3.15-1.307.77-2.917 1.155-4.83 1.155-2.543 0-4.585-.63-6.125-1.89-1.54-1.26-2.462-2.928-2.765-5.005h3.885c.257 1.097.828 1.972 1.715 2.625.887.63 1.995.945 3.325.945 1.657 0 2.893-.502 3.71-1.505.84-1.003 1.26-2.333 1.26-3.99 0-1.68-.42-2.963-1.26-3.85-.84-.91-2.077-1.365-3.71-1.365-1.143 0-2.112.292-2.905.875-.77.56-1.33 1.33-1.68 2.31h-3.78v-14.735h15.4v3.5Zm5.904 8.995c0-4.037.676-7.187 2.03-9.45 1.376-2.287 3.733-3.43 7.07-3.43 3.336 0 5.681 1.143 7.035 3.43 1.376 2.263 2.065 5.413 2.065 9.45 0 4.083-.689 7.28-2.065 9.59-1.354 2.287-3.699 3.43-7.035 3.43-3.337 0-5.694-1.143-7.07-3.43-1.354-2.31-2.03-5.507-2.03-9.59Zm14.28 0c0-1.89-.129-3.488-.385-4.795-.234-1.307-.724-2.368-1.47-3.185-.747-.84-1.855-1.26-3.325-1.26-1.47 0-2.579.42-3.325 1.26-.747.817-1.249 1.878-1.505 3.185-.234 1.307-.35 2.905-.35 4.795 0 1.96.116 3.605.35 4.935.233 1.33.723 2.403 1.47 3.22.77.817 1.89 1.225 3.36 1.225s2.578-.408 3.325-1.225c.77-.817 1.271-1.89 1.505-3.22.233-1.33.35-2.975.35-4.935Zm7.511-6.265c0-1.703.49-3.033 1.47-3.99 1.004-.98 2.287-1.47 3.85-1.47 1.564 0 2.835.49 3.815 1.47 1.004.957 1.505 2.287 1.505 3.99 0 1.703-.501 3.045-1.505 4.025-.98.98-2.251 1.47-3.815 1.47-1.563 0-2.846-.49-3.85-1.47-.98-.98-1.47-2.322-1.47-4.025Zm21.35-5.005L517.63 363h-3.92l13.965-24.36h3.92Zm-16.03 1.96c-1.47 0-2.205 1.015-2.205 3.045 0 2.053.735 3.08 2.205 3.08.7 0 1.237-.245 1.61-.735.397-.513.595-1.295.595-2.345 0-2.03-.735-3.045-2.205-3.045Zm8.925 17.36c0-1.703.49-3.033 1.47-3.99 1.004-.98 2.287-1.47 3.85-1.47 1.54 0 2.8.49 3.78 1.47 1.004.957 1.505 2.287 1.505 3.99 0 1.703-.501 3.045-1.505 4.025-.98.98-2.24 1.47-3.78 1.47-1.563 0-2.846-.49-3.85-1.47-.98-.98-1.47-2.322-1.47-4.025Zm5.285-3.045c-1.47 0-2.205 1.015-2.205 3.045 0 2.03.735 3.045 2.205 3.045 1.47 0 2.205-1.015 2.205-3.045 0-2.03-.735-3.045-2.205-3.045Z"/></svg>

<svg width="1000" height="700" viewBox="0 0 1000 700" fill="none" xmlns="http://www.w3.org/2000/svg">
<rect width="1000" height="700" fill="#FCFCFF"/>
<path d="M482.55 340.915H470.825V347.88C471.315 347.227 472.038 346.678 472.995 346.235C473.975 345.792 475.013 345.57 476.11 345.57C478.07 345.57 479.657 345.99 480.87 346.83C482.107 347.67 482.982 348.732 483.495 350.015C484.032 351.298 484.3 352.652 484.3 354.075C484.3 355.802 483.962 357.342 483.285 358.695C482.632 360.025 481.64 361.075 480.31 361.845C479.003 362.615 477.393 363 475.48 363C472.937 363 470.895 362.37 469.355 361.11C467.815 359.85 466.893 358.182 466.59 356.105H470.475C470.732 357.202 471.303 358.077 472.19 358.73C473.077 359.36 474.185 359.675 475.515 359.675C477.172 359.675 478.408 359.173 479.225 358.17C480.065 357.167 480.485 355.837 480.485 354.18C480.485 352.5 480.065 351.217 479.225 350.33C478.385 349.42 477.148 348.965 475.515 348.965C474.372 348.965 473.403 349.257 472.61 349.84C471.84 350.4 471.28 351.17 470.93 352.15H467.15V337.415H482.55V340.915ZM488.454 349.91C488.454 345.873 489.13 342.723 490.484 340.46C491.86 338.173 494.217 337.03 497.554 337.03C500.89 337.03 503.235 338.173 504.589 340.46C505.965 342.723 506.654 345.873 506.654 349.91C506.654 353.993 505.965 357.19 504.589 359.5C503.235 361.787 500.89 362.93 497.554 362.93C494.217 362.93 491.86 361.787 490.484 359.5C489.13 357.19 488.454 353.993 488.454 349.91ZM502.734 349.91C502.734 348.02 502.605 346.422 502.349 345.115C502.115 343.808 501.625 342.747 500.879 341.93C500.132 341.09 499.024 340.67 497.554 340.67C496.084 340.67 494.975 341.09 494.229 341.93C493.482 342.747 492.98 343.808 492.724 345.115C492.49 346.422 492.374 348.02 492.374 349.91C492.374 351.87 492.49 353.515 492.724 354.845C492.957 356.175 493.447 357.248 494.194 358.065C494.964 358.882 496.084 359.29 497.554 359.29C499.024 359.29 500.132 358.882 500.879 358.065C501.649 357.248 502.15 356.175 502.384 354.845C502.617 353.515 502.734 351.87 502.734 349.91ZM510.245 343.645C510.245 341.942 510.735 340.612 511.715 339.655C512.719 338.675 514.002 338.185 515.565 338.185C517.129 338.185 518.4 338.675 519.38 339.655C520.384 340.612 520.885 341.942 520.885 343.645C520.885 345.348 520.384 346.69 519.38 347.67C518.4 348.65 517.129 349.14 515.565 349.14C514.002 349.14 512.719 348.65 511.715 347.67C510.735 346.69 510.245 345.348 510.245 343.645ZM531.595 338.64L517.63 363H513.71L527.675 338.64H531.595ZM515.565 340.6C514.095 340.6 513.36 341.615 513.36 343.645C513.36 345.698 514.095 346.725 515.565 346.725C516.265 346.725 516.802 346.48 517.175 345.99C517.572 345.477 517.77 344.695 517.77 343.645C517.77 341.615 517.035 340.6 515.565 340.6ZM524.49 357.96C524.49 356.257 524.98 354.927 525.96 353.97C526.964 352.99 528.247 352.5 529.81 352.5C531.35 352.5 532.61 352.99 533.59 353.97C534.594 354.927 535.095 356.257 535.095 357.96C535.095 359.663 534.594 361.005 533.59 361.985C532.61 362.965 531.35 363.455 529.81 363.455C528.247 363.455 526.964 362.965 525.96 361.985C524.98 361.005 524.49 359.663 524.49 357.96ZM529.775 354.915C528.305 354.915 527.57 355.93 527.57 357.96C527.57 359.99 528.305 361.005 529.775 361.005C531.245 361.005 531.98 359.99 531.98 357.96C531.98 355.93 531.245 354.915 529.775 354.915Z" fill="#888888"/>
</svg>
